Newaita-dark/devices/24/network-wireless-hotspot.svg

<?xml version="1.0" encoding="UTF-8"?>
<svg xmlns="http://www.w3.org/2000/svg" xmlns:xlink="http://www.w3.org/1999/xlink" width="24pt" height="24pt" viewBox="0 0 24 24" version="1.1">
<defs>
<radialGradient id="radial0" gradientUnits="userSpaceOnUse" cx="450.908936" cy="189.579361" fx="450.908936" fy="189.579361" r="21.166656" gradientTransform="matrix(0.000000130628,-0.0585994,-0.105479,-0.0000000761539,31.65587,47.630346)">
<stop offset="0" style="stop-color:rgb(0%,0%,0%);stop-opacity:0.313725;"/>
<stop offset="0.222222" style="stop-color:rgb(0%,0%,0%);stop-opacity:0.27451;"/>
<stop offset="1" style="stop-color:rgb(0%,0%,0%);stop-opacity:0;"/>
</radialGradient>
<radialGradient id="radial1" gradientUnits="userSpaceOnUse" cx="450.908936" cy="189.579361" fx="450.908936" fy="189.579361" r="21.166656" gradientTransform="matrix(-0.000000130628,0.0585994,0.105479,0.0000000761539,-7.841093,-5.711762)">
<stop offset="0" style="stop-color:rgb(0%,0%,0%);stop-opacity:0.313725;"/>
<stop offset="0.222222" style="stop-color:rgb(0%,0%,0%);stop-opacity:0.27451;"/>
<stop offset="1" style="stop-color:rgb(0%,0%,0%);stop-opacity:0;"/>
</radialGradient>
<radialGradient id="radial2" gradientUnits="userSpaceOnUse" cx="450.908936" cy="189.579361" fx="450.908936" fy="189.579361" r="21.166656" gradientTransform="matrix(-0.000000130628,-0.0585994,0.105479,-0.0000000761539,-7.841093,47.630346)">
<stop offset="0" style="stop-color:rgb(0%,0%,0%);stop-opacity:0.313725;"/>
<stop offset="0.222222" style="stop-color:rgb(0%,0%,0%);stop-opacity:0.27451;"/>
<stop offset="1" style="stop-color:rgb(0%,0%,0%);stop-opacity:0;"/>
</radialGradient>
<radialGradient id="radial3" gradientUnits="userSpaceOnUse" cx="450.908936" cy="189.579361" fx="450.908936" fy="189.579361" r="21.166656" gradientTransform="matrix(0.000000130628,0.0585994,-0.105479,0.0000000761539,31.655869,-5.711763)">
<stop offset="0" style="stop-color:rgb(0%,0%,0%);stop-opacity:0.313725;"/>
<stop offset="0.222222" style="stop-color:rgb(0%,0%,0%);stop-opacity:0.27451;"/>
<stop offset="1" style="stop-color:rgb(0%,0%,0%);stop-opacity:0;"/>
</radialGradient>
<linearGradient id="linear0" gradientUnits="userSpaceOnUse" x1="254" y1="233.5" x2="254" y2="-147.5" gradientTransform="matrix(0.0468795,0,0,0.0468795,0,10.079087)">
<stop offset="0" style="stop-color:rgb(0%,58.823529%,53.333333%);stop-opacity:1;"/>
<stop offset="1" style="stop-color:rgb(14.901961%,65.098039%,60.392157%);stop-opacity:1;"/>
</linearGradient>
<linearGradient id="linear1" gradientUnits="userSpaceOnUse" x1="254" y1="233.5" x2="254" y2="-147.5" gradientTransform="matrix(0.0468795,0,0,0.0468795,0,10.079087)">
<stop offset="0" style="stop-color:rgb(74.117647%,74.117647%,74.117647%);stop-opacity:1;"/>
<stop offset="1" style="stop-color:rgb(87.843137%,87.843137%,87.843137%);stop-opacity:1;"/>
</linearGradient>
<linearGradient id="linear2" gradientUnits="userSpaceOnUse" x1="254" y1="233.5" x2="254" y2="-147.5" gradientTransform="matrix(0.0468795,0,0,0.0468795,0,10.079087)">
<stop offset="0" style="stop-color:rgb(0%,58.823529%,53.333333%);stop-opacity:1;"/>
<stop offset="1" style="stop-color:rgb(14.901961%,65.098039%,60.392157%);stop-opacity:1;"/>
</linearGradient>
<linearGradient id="linear3" gradientUnits="userSpaceOnUse" x1="254" y1="233.5" x2="254" y2="-147.5" gradientTransform="matrix(0.0468795,0,0,0.0468795,0,10.079087)">
<stop offset="0" style="stop-color:rgb(40%,73.333333%,41.568627%);stop-opacity:1;"/>
<stop offset="1" style="stop-color:rgb(50.588235%,78.039216%,51.764706%);stop-opacity:1;"/>
</linearGradient>
<linearGradient id="linear4" gradientUnits="userSpaceOnUse" x1="254" y1="233.5" x2="254" y2="-147.5" gradientTransform="matrix(0.0468795,0,0,0.0468795,0,10.079087)">
<stop offset="0" style="stop-color:rgb(40%,73.333333%,41.568627%);stop-opacity:1;"/>
<stop offset="1" style="stop-color:rgb(50.588235%,78.039216%,51.764706%);stop-opacity:1;"/>
</linearGradient>
</defs>
<g id="surface1">
<path style=" stroke:none;fill-rule:nonzero;fill:url(#radial0);" d="M 11.90625 20.960938 L 13.890625 20.960938 L 13.890625 19.96875 L 11.90625 19.96875 Z M 11.90625 20.960938 "/>
<path style=" stroke:none;fill-rule:nonzero;fill:url(#radial1);" d="M 11.90625 20.960938 L 9.921875 20.960938 L 9.921875 21.953125 L 11.90625 21.953125 Z M 11.90625 20.960938 "/>
<path style=" stroke:none;fill-rule:nonzero;fill:url(#radial2);" d="M 11.90625 20.960938 L 9.921875 20.960938 L 9.921875 19.96875 L 11.90625 19.96875 Z M 11.90625 20.960938 "/>
<path style=" stroke:none;fill-rule:nonzero;fill:url(#radial3);" d="M 11.90625 20.960938 L 13.890625 20.960938 L 13.890625 21.953125 L 11.90625 21.953125 Z M 11.90625 20.960938 "/>
<path style=" stroke:none;fill-rule:nonzero;fill:url(#linear0);" d="M 11.90625 15.195312 C 10.453125 15.195312 9.148438 15.816406 8.242188 16.808594 L 10.882812 20.652344 C 11.410156 21.148438 12.402344 21.148438 12.929688 20.652344 L 15.574219 16.808594 C 14.667969 15.816406 13.363281 15.195312 11.90625 15.195312 Z M 11.90625 15.195312 "/>
<path style=" stroke:none;fill-rule:nonzero;fill:url(#linear1);" d="M 11.90625 3.289062 C 7.945312 3.289062 4.308594 4.640625 1.4375 6.910156 L 3.128906 9.375 C 5.519531 7.429688 8.570312 6.265625 11.90625 6.265625 C 15.242188 6.265625 18.296875 7.429688 20.683594 9.375 L 22.378906 6.910156 C 19.503906 4.640625 15.871094 3.289062 11.90625 3.289062 Z M 11.90625 3.289062 "/>
<path style=" stroke:none;fill-rule:nonzero;fill:url(#linear2);" d="M 11.90625 9.242188 C 9.199219 9.242188 6.726562 10.21875 4.824219 11.839844 L 6.523438 14.3125 C 7.9375 13.011719 9.828125 12.21875 11.90625 12.21875 C 13.988281 12.21875 15.878906 13.011719 17.289062 14.3125 L 18.992188 11.839844 C 17.085938 10.21875 14.613281 9.242188 11.90625 9.242188 Z M 11.90625 9.242188 "/>
<path style=" stroke:none;fill-rule:nonzero;fill:url(#linear3);" d="M 11.90625 9.242188 C 9.199219 9.242188 6.726562 10.21875 4.824219 11.839844 L 6.523438 14.3125 C 7.9375 13.011719 9.828125 12.21875 11.90625 12.21875 C 13.988281 12.21875 15.878906 13.011719 17.289062 14.3125 L 18.992188 11.839844 C 17.085938 10.21875 14.613281 9.242188 11.90625 9.242188 Z M 11.90625 9.242188 "/>
<path style=" stroke:none;fill-rule:nonzero;fill:url(#linear4);" d="M 11.90625 15.195312 C 10.453125 15.195312 9.148438 15.816406 8.242188 16.808594 L 10.882812 20.652344 C 11.410156 21.148438 12.402344 21.148438 12.929688 20.652344 L 15.574219 16.808594 C 14.667969 15.816406 13.363281 15.195312 11.90625 15.195312 Z M 11.90625 15.195312 "/>
<path style=" stroke:none;fill-rule:nonzero;fill:rgb(0%,0%,0%);fill-opacity:0.235294;" d="M 11.90625 6.078125 C 8.570312 6.078125 5.519531 7.242188 3.128906 9.1875 L 1.519531 6.847656 C 1.492188 6.867188 1.464844 6.890625 1.4375 6.910156 L 3.128906 9.375 C 5.519531 7.429688 8.570312 6.265625 11.90625 6.265625 C 15.242188 6.265625 18.296875 7.429688 20.683594 9.375 L 22.378906 6.910156 C 22.351562 6.890625 22.324219 6.867188 22.292969 6.847656 L 20.683594 9.1875 C 18.296875 7.242188 15.242188 6.078125 11.90625 6.078125 Z M 4.90625 11.769531 C 4.878906 11.792969 4.851562 11.816406 4.824219 11.839844 L 6.523438 14.3125 C 7.9375 13.011719 9.828125 12.21875 11.90625 12.21875 C 13.988281 12.21875 15.878906 13.011719 17.289062 14.3125 L 18.992188 11.839844 C 18.964844 11.816406 18.9375 11.792969 18.910156 11.769531 L 17.289062 14.125 C 15.878906 12.824219 13.988281 12.03125 11.90625 12.03125 C 9.828125 12.03125 7.9375 12.824219 6.523438 14.125 Z M 8.3125 16.730469 C 8.289062 16.753906 8.265625 16.78125 8.242188 16.808594 L 10.882812 20.652344 C 11.410156 21.148438 12.402344 21.148438 12.929688 20.652344 L 15.574219 16.808594 C 15.550781 16.78125 15.523438 16.753906 15.5 16.730469 L 12.929688 20.46875 C 12.402344 20.964844 11.410156 20.964844 10.882812 20.46875 Z M 8.3125 16.730469 "/>
<path style=" stroke:none;fill-rule:nonzero;fill:rgb(100%,100%,100%);fill-opacity:0.392157;" d="M 11.90625 3.289062 C 7.945312 3.289062 4.308594 4.640625 1.4375 6.910156 L 1.546875 7.074219 C 4.402344 4.855469 7.996094 3.535156 11.90625 3.535156 C 15.820312 3.535156 19.410156 4.855469 22.265625 7.074219 L 22.378906 6.910156 C 19.503906 4.640625 15.871094 3.289062 11.90625 3.289062 Z M 11.90625 9.242188 C 9.199219 9.242188 6.726562 10.21875 4.824219 11.839844 L 4.933594 11.996094 C 6.820312 10.429688 9.25 9.488281 11.90625 9.488281 C 14.5625 9.488281 16.992188 10.429688 18.882812 11.996094 L 18.992188 11.839844 C 17.085938 10.21875 14.613281 9.242188 11.90625 9.242188 Z M 11.90625 15.195312 C 10.453125 15.195312 9.148438 15.816406 8.242188 16.808594 L 8.339844 16.953125 C 9.238281 16.019531 10.503906 15.445312 11.90625 15.445312 C 13.3125 15.445312 14.574219 16.019531 15.476562 16.953125 L 15.574219 16.808594 C 14.667969 15.816406 13.363281 15.195312 11.90625 15.195312 Z M 11.90625 15.195312 "/>
<path style=" stroke:none;fill-rule:nonzero;fill:rgb(12.941177%,12.941177%,12.941177%);fill-opacity:1;" d="M 11.90625 3.21875 C 7.929688 3.21875 4.277344 4.578125 1.394531 6.855469 L 1.339844 6.898438 L 3.113281 9.476562 L 3.175781 9.429688 C 5.550781 7.492188 8.589844 6.335938 11.90625 6.335938 C 15.226562 6.335938 18.261719 7.492188 20.640625 9.429688 L 20.699219 9.476562 L 22.472656 6.898438 L 22.421875 6.855469 C 19.535156 4.578125 15.886719 3.21875 11.90625 3.21875 Z M 11.90625 3.359375 C 15.832031 3.359375 19.429688 4.691406 22.28125 6.925781 L 20.667969 9.273438 C 18.277344 7.347656 15.230469 6.195312 11.90625 6.195312 C 8.582031 6.195312 5.539062 7.347656 3.144531 9.273438 L 1.53125 6.925781 C 4.386719 4.691406 7.984375 3.359375 11.90625 3.359375 Z M 11.90625 9.171875 C 9.183594 9.171875 6.695312 10.15625 4.777344 11.785156 L 4.730469 11.828125 L 6.511719 14.417969 L 6.574219 14.363281 C 7.972656 13.074219 9.84375 12.289062 11.90625 12.289062 C 13.96875 12.289062 15.84375 13.074219 17.242188 14.363281 L 17.300781 14.417969 L 19.085938 11.828125 L 19.035156 11.785156 C 17.121094 10.15625 14.632812 9.171875 11.90625 9.171875 Z M 11.90625 9.3125 C 14.574219 9.3125 17.011719 10.265625 18.894531 11.851562 L 17.277344 14.207031 C 15.859375 12.925781 13.976562 12.148438 11.90625 12.148438 C 9.835938 12.148438 7.957031 12.925781 6.539062 14.207031 L 4.917969 11.851562 C 6.804688 10.265625 9.238281 9.3125 11.90625 9.3125 Z M 11.90625 15.125 C 10.433594 15.125 9.109375 15.753906 8.1875 16.761719 L 8.152344 16.800781 L 10.832031 20.699219 L 10.835938 20.703125 C 11.117188 20.96875 11.511719 21.097656 11.90625 21.097656 C 12.300781 21.097656 12.699219 20.96875 12.980469 20.703125 L 12.984375 20.699219 L 15.664062 16.800781 L 15.625 16.761719 C 14.707031 15.753906 13.382812 15.125 11.90625 15.125 Z M 11.90625 15.265625 C 13.324219 15.265625 14.59375 15.863281 15.484375 16.816406 L 12.878906 20.605469 C 12.628906 20.835938 12.269531 20.957031 11.90625 20.957031 C 11.546875 20.957031 11.183594 20.835938 10.9375 20.605469 L 8.332031 16.816406 C 9.222656 15.863281 10.492188 15.265625 11.90625 15.265625 Z M 11.90625 15.265625 "/>
</g>
</svg>

<svg xmlns="http://www.w3.org/2000/svg" width="32" height="32" viewBox="0 0 24 24"><defs><radialGradient id="a" gradientUnits="userSpaceOnUse" cx="450.909" cy="189.579" fx="450.909" fy="189.579" r="21.167" gradientTransform="matrix(0 -.0586 -.10548 0 31.656 47.63)"><stop offset="0" stop-opacity=".314"/><stop offset=".222" stop-opacity=".275"/><stop offset="1" stop-opacity="0"/></radialGradient><radialGradient id="b" gradientUnits="userSpaceOnUse" cx="450.909" cy="189.579" fx="450.909" fy="189.579" r="21.167" gradientTransform="matrix(0 .0586 .10548 0 -7.841 -5.712)"><stop offset="0" stop-opacity=".314"/><stop offset=".222" stop-opacity=".275"/><stop offset="1" stop-opacity="0"/></radialGradient><radialGradient id="c" gradientUnits="userSpaceOnUse" cx="450.909" cy="189.579" fx="450.909" fy="189.579" r="21.167" gradientTransform="matrix(0 -.0586 .10548 0 -7.841 47.63)"><stop offset="0" stop-opacity=".314"/><stop offset=".222" stop-opacity=".275"/><stop offset="1" stop-opacity="0"/></radialGradient><radialGradient id="d" gradientUnits="userSpaceOnUse" cx="450.909" cy="189.579" fx="450.909" fy="189.579" r="21.167" gradientTransform="matrix(0 .0586 -.10548 0 31.656 -5.712)"><stop offset="0" stop-opacity=".314"/><stop offset=".222" stop-opacity=".275"/><stop offset="1" stop-opacity="0"/></radialGradient><linearGradient id="e" gradientUnits="userSpaceOnUse" x1="254" y1="233.5" x2="254" y2="-147.5" gradientTransform="matrix(.04688 0 0 .04688 0 10.08)"><stop offset="0" stop-color="#009688"/><stop offset="1" stop-color="#26a69a"/></linearGradient><linearGradient id="f" gradientUnits="userSpaceOnUse" x1="254" y1="233.5" x2="254" y2="-147.5" gradientTransform="matrix(.04688 0 0 .04688 0 10.08)"><stop offset="0" stop-color="#bdbdbd"/><stop offset="1" stop-color="#e0e0e0"/></linearGradient><linearGradient id="g" gradientUnits="userSpaceOnUse" x1="254" y1="233.5" x2="254" y2="-147.5" gradientTransform="matrix(.04688 0 0 .04688 0 10.08)"><stop offset="0" stop-color="#009688"/><stop offset="1" stop-color="#26a69a"/></linearGradient><linearGradient id="h" gradientUnits="userSpaceOnUse" x1="254" y1="233.5" x2="254" y2="-147.5" gradientTransform="matrix(.04688 0 0 .04688 0 10.08)"><stop offset="0" stop-color="#66bb6a"/><stop offset="1" stop-color="#81c784"/></linearGradient><linearGradient id="i" gradientUnits="userSpaceOnUse" x1="254" y1="233.5" x2="254" y2="-147.5" gradientTransform="matrix(.04688 0 0 .04688 0 10.08)"><stop offset="0" stop-color="#66bb6a"/><stop offset="1" stop-color="#81c784"/></linearGradient></defs><path d="M11.906 20.96h1.985v-.991h-1.985zm0 0" fill="url(#a)"/><path d="M11.906 20.96H9.922v.993h1.984zm0 0" fill="url(#b)"/><path d="M11.906 20.96H9.922v-.991h1.984zm0 0" fill="url(#c)"/><path d="M11.906 20.96h1.985v.993h-1.985zm0 0" fill="url(#d)"/><path d="M11.906 15.195a4.945 4.945 0 0 0-3.664 1.614l2.64 3.843c.528.496 1.52.496 2.048 0l2.644-3.843a4.947 4.947 0 0 0-3.668-1.614zm0 0" fill="url(#e)"/><path d="M11.906 3.29c-3.96 0-7.597 1.35-10.469 3.62L3.13 9.375a13.846 13.846 0 0 1 8.777-3.11c3.336 0 6.39 1.165 8.778 3.11l1.695-2.465a16.828 16.828 0 0 0-10.473-3.62zm0 0" fill="url(#f)"/><path d="M11.906 9.242c-2.707 0-5.18.977-7.082 2.598l1.7 2.473a7.922 7.922 0 0 1 5.382-2.094c2.082 0 3.973.793 5.383 2.094l1.703-2.473a10.895 10.895 0 0 0-7.086-2.598zm0 0" fill="url(#g)"/><path d="M11.906 9.242c-2.707 0-5.18.977-7.082 2.598l1.7 2.473a7.922 7.922 0 0 1 5.382-2.094c2.082 0 3.973.793 5.383 2.094l1.703-2.473a10.895 10.895 0 0 0-7.086-2.598zm0 0" fill="url(#h)"/><path d="M11.906 15.195a4.945 4.945 0 0 0-3.664 1.614l2.64 3.843c.528.496 1.52.496 2.048 0l2.644-3.843a4.947 4.947 0 0 0-3.668-1.614zm0 0" fill="url(#i)"/><path d="M11.906 6.078a13.846 13.846 0 0 0-8.777 3.11l-1.61-2.34c-.027.02-.054.043-.081.062l1.69 2.465a13.846 13.846 0 0 1 8.778-3.11c3.336 0 6.39 1.165 8.778 3.11l1.695-2.465c-.027-.02-.055-.043-.086-.062l-1.61 2.34a13.838 13.838 0 0 0-8.777-3.11zm-7 5.692l-.082.07 1.7 2.473a7.922 7.922 0 0 1 5.382-2.094c2.082 0 3.973.793 5.383 2.094l1.703-2.473-.082-.07-1.62 2.355a7.908 7.908 0 0 0-5.384-2.094 7.922 7.922 0 0 0-5.383 2.094zm3.407 4.96c-.024.024-.047.051-.07.079l2.64 3.843c.527.496 1.52.496 2.047 0l2.644-3.843a1.438 1.438 0 0 0-.074-.079l-2.57 3.739c-.528.496-1.52.496-2.047 0zm0 0" fill-opacity=".235"/><path d="M11.906 3.29c-3.96 0-7.597 1.35-10.469 3.62l.11.164a16.82 16.82 0 0 1 10.36-3.539c3.913 0 7.503 1.32 10.359 3.54l.113-.165a16.828 16.828 0 0 0-10.473-3.62zm0 5.952c-2.707 0-5.18.977-7.082 2.598l.11.156a10.874 10.874 0 0 1 6.972-2.508c2.656 0 5.086.942 6.977 2.508l.11-.156a10.895 10.895 0 0 0-7.087-2.598zm0 5.953a4.945 4.945 0 0 0-3.664 1.614l.098.144a4.928 4.928 0 0 1 3.566-1.508c1.406 0 2.668.575 3.57 1.508l.098-.144a4.947 4.947 0 0 0-3.668-1.614zm0 0" fill="#fff" fill-opacity=".392"/><path d="M11.906 3.219c-3.976 0-7.629 1.36-10.511 3.636l-.055.043 1.773 2.579.063-.047a13.756 13.756 0 0 1 8.73-3.094c3.32 0 6.356 1.156 8.735 3.094l.058.047 1.774-2.579-.051-.043A16.908 16.908 0 0 0 11.906 3.22zm0 .14a16.75 16.75 0 0 1 10.375 3.567l-1.613 2.347a13.913 13.913 0 0 0-8.762-3.078 13.922 13.922 0 0 0-8.761 3.078L1.53 6.926a16.766 16.766 0 0 1 10.375-3.567zm0 5.813c-2.722 0-5.21.984-7.129 2.613l-.047.043 1.782 2.59.062-.055a7.834 7.834 0 0 1 5.332-2.074c2.063 0 3.938.785 5.336 2.074l.059.055 1.785-2.59-.05-.043a10.958 10.958 0 0 0-7.13-2.613zm0 .14c2.668 0 5.106.954 6.989 2.54l-1.618 2.355a7.979 7.979 0 0 0-5.37-2.059c-2.071 0-3.95.778-5.368 2.059l-1.621-2.355a10.812 10.812 0 0 1 6.988-2.54zm0 5.813a5.022 5.022 0 0 0-3.719 1.637l-.035.039 2.68 3.898.004.004c.281.266.676.395 1.07.395.395 0 .793-.13 1.074-.395l.004-.004 2.68-3.898-.039-.04a5.01 5.01 0 0 0-3.719-1.636zm0 .14c1.418 0 2.688.598 3.578 1.551l-2.605 3.79c-.25.23-.61.351-.973.351-.36 0-.722-.121-.969-.352l-2.605-3.789a4.875 4.875 0 0 1 3.574-1.55zm0 0" fill="#212121"/></svg>
